X:3
T:Blue In Green
C:Miles Davis & Bill Evans
L:1/4
M:C
I:linebreak $
K:C
"Gm" e3 d |"A7" c3 _B |"Dm" A3"Db7" G |"Cm" F"F7" d3 |$"Bb" E3/2 D/ ^C/D/F/A/ |"A7" c3 A |
"Dm" G3 F |"E+" c3 ^G |$"Am" B3 A |"Dm" f3 ^c :|"Gm" e3 d |"A7" c3 _B |"Dm" A4 | z4 |]

